Themes/OneUI/assets/svg/audio-squircle.svg

<?xml version="1.0" encoding="UTF-8" standalone="no"?>
<svg
   id="vector"
   width="28.000011"
   height="28.000034"
   viewBox="0 0 28.000011 28.000034"
   version="1.1"
   sodipodi:docname="audio-squircle.svg"
   xmlns:inkscape="http://www.inkscape.org/namespaces/inkscape"
   xmlns:sodipodi="http://sodipodi.sourceforge.net/DTD/sodipodi-0.dtd"
   xmlns="http://www.w3.org/2000/svg"
   xmlns:svg="http://www.w3.org/2000/svg">
  <defs
     id="defs105" />
  <sodipodi:namedview
     id="namedview103"
     pagecolor="#ffffff"
     bordercolor="#666666"
     borderopacity="1.0"
     inkscape:showpageshadow="2"
     inkscape:pageopacity="0.0"
     inkscape:pagecheckerboard="0"
     inkscape:deskcolor="#d1d1d1" />
  <path
     fill="@color/sec_dashboard_sounds_color"
     d="m 24.855991,3.144014 c -1.726,-1.6224 -4.0821,-2.54279996 -6.6822,-2.88709996 -2.4831,-0.3291 -4.1738,-0.2481 -4.1738,-0.2481 0,0 -1.691,-0.081 -4.1742004,0.2481 -2.6,0.3443 -4.956,1.26469996 -6.6815,2.88709996 -1.6228,1.7258 -2.5431,4.0819 -2.8876,6.6819 -0.3291,2.483 -0.2478,4.174 -0.2478,4.174 0,0 -0.0813,1.6908 0.2478,4.174 0.3445,2.5998 1.2648,4.9561 2.8874,6.6819 1.7257,1.6226 4.0817,2.5428 6.6817,2.8875 2.4832004,0.3289 4.1742004,0.2479 4.1742004,0.2479 0,0 1.6907,0.081 4.1738,-0.2479 2.6001,-0.3447 4.9562,-1.2649 6.6818,-2.8875 1.623,-1.7258 2.5432,-4.0821 2.8877,-6.6819 0.3289,-2.4832 0.2479,-4.174 0.2479,-4.174 0,0 0.081,-1.691 -0.2479,-4.174 -0.3445,-2.6 -1.2647,-4.9561 -2.8873,-6.6819 z"
     stroke="#00000000"
     stroke-width="1"
     fill-rule="evenodd"
     id="path_0" />
  <path
     fill="#ffffffff"
     d="m 13.689391,7.700414 c 0.5629,-0.506 1.023,-0.2997 1.023,0.4556 v 0 11.6875 c 0,0.7563 -0.4601,0.9616 -1.023,0.4565 v 0 l -4.1974004,-3.542 v -0.0348 c -0.0889,0.0147 -0.1787,0.0247 -0.2713,0.0247 v 0 h -1.9195 c -0.8828,0 -1.6042,-0.7223 -1.6042,-1.6041 v 0 -2.2917 c 0,-0.8828 0.7214,-1.6042 1.6042,-1.6042 v 0 h 1.9195 c 0.0926,0 0.1824,0.0101 0.2713,0.0248 v 0 -0.0312 z m 4.9662,0.332 c 0.2585,-0.2786 0.6939,-0.2942 0.9716,-0.0366 1.7261,1.6014 2.6758,3.7336 2.6758,6.0051 0,2.2706 -0.9506,4.4027 -2.6758,6.0032 -0.1329,0.1228 -0.2997,0.1834 -0.4675,0.1834 -0.1842,0 -0.3685,-0.0734 -0.5041,-0.2191 -0.2585,-0.2787 -0.2411,-0.7141 0.0366,-0.9726 1.4419,-1.3365 2.2358,-3.1112 2.2358,-4.9949 0,-1.8847 -0.7939,-3.6584 -2.2358,-4.9968 -0.2777,-0.2585 -0.2951,-0.693 -0.0366,-0.9717 z m -1.9534,2.6299 c 0.2613,-0.2741 0.6958,-0.2869 0.9726,-0.0257 0.946,0.8965 1.4676,2.09 1.4685,3.3633 0,1.2732 -0.5225,2.4676 -1.4685,3.3641 -0.1338,0.1265 -0.3034,0.1879 -0.473,0.1879 -0.1824,0 -0.3639,-0.0715 -0.4996,-0.2135 -0.2612,-0.276 -0.2484,-0.7123 0.0275,-0.9726 0.6692,-0.6344 1.0386,-1.474 1.0386,-2.3659 -9e-4,-0.891 -0.3694,-1.7316 -1.0386,-2.365 -0.2759,-0.2613 -0.2887,-0.6967 -0.0275,-0.9726 z"
     stroke="#00000000"
     stroke-width="1"
     fill-rule="nonzero"
     id="path_1" />
</svg>

<svg id="vector" xmlns="http://www.w3.org/2000/svg" width="28.0d" height="28.0d" viewBox="0 0 28.0 28.0"><path fill="@color/sec_dashboard_sounds_color" d="M24.856,3.144C23.13,1.5216 20.7739,0.6012 18.1738,0.2569C15.6907,-0.0722 14,0.0088 14,0.0088C14,0.0088 12.309,-0.0722 9.8258,0.2569C7.2258,0.6012 4.8698,1.5216 3.1443,3.144C1.5215,4.8698 0.6012,7.2259 0.2567,9.8259C-0.0724,12.3089 0.0089,13.9999 0.0089,13.9999C0.0089,13.9999 -0.0724,15.6907 0.2567,18.1739C0.6012,20.7737 1.5215,23.13 3.1441,24.8558C4.8698,26.4784 7.2258,27.3986 9.8258,27.7433C12.309,28.0722 14,27.9912 14,27.9912C14,27.9912 15.6907,28.0722 18.1738,27.7433C20.7739,27.3986 23.13,26.4784 24.8556,24.8558C26.4786,23.13 27.3988,20.7737 27.7433,18.1739C28.0722,15.6907 27.9912,13.9999 27.9912,13.9999C27.9912,13.9999 28.0722,12.3089 27.7433,9.8259C27.3988,7.2259 26.4786,4.8698 24.856,3.144Z" stroke="#00000000" stroke-width="1.0" fill-rule="evenodd" id="path_0"/><path fill="#ffffffff" d="M13.6894,7.7004C14.2523,7.1944 14.7124,7.4007 14.7124,8.156L14.7124,8.156L14.7124,19.8435C14.7124,20.5998 14.2523,20.8051 13.6894,20.3L13.6894,20.3L9.492,16.758L9.492,16.7232C9.4031,16.7379 9.3133,16.7479 9.2207,16.7479L9.2207,16.7479L7.3012,16.7479C6.4184,16.7479 5.697,16.0256 5.697,15.1438L5.697,15.1438L5.697,12.8521C5.697,11.9693 6.4184,11.2479 7.3012,11.2479L7.3012,11.2479L9.2207,11.2479C9.3133,11.2479 9.4031,11.258 9.492,11.2727L9.492,11.2727L9.492,11.2415ZM18.6556,8.0324C18.9141,7.7538 19.3495,7.7382 19.6272,7.9958C21.3533,9.5972 22.303,11.7294 22.303,14.0009C22.303,16.2715 21.3524,18.4036 19.6272,20.0041C19.4943,20.1269 19.3275,20.1875 19.1597,20.1875C18.9755,20.1875 18.7912,20.1141 18.6556,19.9684C18.3971,19.6897 18.4145,19.2543 18.6922,18.9958C20.1341,17.6593 20.928,15.8846 20.928,14.0009C20.928,12.1162 20.1341,10.3425 18.6922,9.0041C18.4145,8.7456 18.3971,8.3111 18.6556,8.0324ZM16.7022,10.6623C16.9635,10.3882 17.398,10.3754 17.6748,10.6366C18.6208,11.5331 19.1424,12.7266 19.1433,13.9999C19.1433,15.2731 18.6208,16.4675 17.6748,17.364C17.541,17.4905 17.3714,17.5519 17.2018,17.5519C17.0194,17.5519 16.8379,17.4804 16.7022,17.3384C16.441,17.0624 16.4538,16.6261 16.7297,16.3658C17.3989,15.7314 17.7683,14.8918 17.7683,13.9999C17.7674,13.1089 17.3989,12.2683 16.7297,11.6349C16.4538,11.3736 16.441,10.9382 16.7022,10.6623Z" stroke="#00000000" stroke-width="1.0" fill-rule="nonzero" id="path_1"/></svg>
